X: 39404
T: Tap Room, The
R: reel
M: 4/4
K: Edorian
E2(3ABc d2Bc|dBAF DEFD|E2BE dEBE|1 dBAF DEFD:|2 dBAd BEEA||
Bdef g2fe|defg afde|Bdef g2fe|dBA=c BEE2|
Bdef g2fe|defg afdf|g2(3fgf edBc|dBAd BEE2||

